frontend/public/svg/interface/arrow-up.svg

<svg width="165" height="147" viewBox="0 0 165 147" fill="none" xmlns="http://www.w3.org/2000/svg">
<g clip-path="url(#clip0)">
<path d="M163.823 89.4034C163.255 75.8691 162.679 64.0383 162.06 53.2458C161.635 45.844 161.029 36.1053 160.107 26.4163C158.765 12.2674 147.327 2.02719 132.292 1.51237C121.194 1.13224 109.905 0.973375 98.9866 0.819251H98.8851C95.7652 0.775864 92.5933 0.802188 89.5261 0.828738C84.4902 0.870183 79.2832 0.914724 74.1882 0.645976C62.6121 0.0372536 50.346 0.546725 34.425 2.29907C24.0637 3.4388 16.2678 6.46978 9.88551 11.8376C4.6258 16.2631 2.06169 21.3936 2.04803 27.5255C2.04347 29.5123 2.0037 31.5136 1.92951 33.4732C1.86443 35.2087 1.74407 36.9808 1.62953 38.6943C1.30241 42.3704 1.21435 46.0638 1.36594 49.7512C1.46399 51.2928 1.56416 52.8346 1.66655 54.3772C2.45661 66.4073 3.27343 78.8473 2.44302 91.1202C2.1007 96.1907 2.19447 101.362 2.28493 106.363L2.30431 107.449C2.45529 116.016 3.71537 123.549 6.15585 130.476C8.78769 137.948 13.897 142.491 21.3421 143.979C25.9491 144.933 30.6245 145.521 35.325 145.74C44.0912 146.097 53.0071 146.294 61.6301 146.486C65.1106 146.563 68.5907 146.643 72.0705 146.728H72.0835C72.2 146.726 72.3139 146.689 72.4089 146.62H75.4364C77.6634 146.62 79.8911 146.62 82.1181 146.62L85.7886 146.626C100.269 146.656 115.26 146.684 129.888 144.403C134.99 143.608 140.948 142.496 146.467 140.289C157.545 135.859 163.523 127.69 164.234 116.01C164.689 108.502 164.346 100.947 164.011 93.6399C163.948 92.2269 163.884 90.8152 163.823 89.4034ZM11.8587 81.2161C11.6771 73.3947 11.2794 64.9619 10.6085 54.6839C10.0781 46.5788 9.75535 35.8936 11.9947 25.0667C12.0462 24.9189 12.0682 24.7626 12.0597 24.6064C11.543 18.5243 15.9066 16.1419 20.5259 13.6203L20.6873 13.5324C25.1706 11.0839 30.133 10.2296 34.8317 9.57169C45.5308 8.17111 56.3158 7.52191 67.1069 7.62896C71.5973 7.62896 76.0286 7.70272 80.3713 7.79338C88.2772 7.95916 96.3158 8.06666 104.088 8.17027C110.873 8.26093 117.886 8.35502 124.784 8.48713C127.981 8.52605 131.17 8.79745 134.327 9.29912C145.675 11.181 151.951 18.5226 152.477 30.5319C152.909 40.3971 153.306 50.4306 153.69 60.1333C153.979 67.404 154.272 74.6749 154.572 81.9459C154.682 84.5758 154.832 87.2457 154.978 89.8289C155.207 93.8711 155.444 98.0531 155.527 102.159C155.626 107.016 155.354 112.002 155.071 116.69C154.654 123.515 150.662 128.364 143.208 131.1C138.643 132.696 133.924 133.818 129.127 134.446C112.967 136.842 96.3854 136.736 80.3434 136.634L78.2361 136.621C77.3901 136.616 76.5473 136.617 75.7039 136.621H74.5572C74.4524 136.621 74.3502 136.646 74.2571 136.693C74.1641 136.74 74.0834 136.807 74.0222 136.891C70.5294 136.802 67.0366 136.716 63.544 136.632C53.2615 136.379 42.6314 136.119 32.1796 135.778C29.4866 135.615 26.8105 135.245 24.175 134.67L23.7116 134.582C19.3031 133.74 16.353 131.032 14.9447 126.526C12.8061 119.482 11.7362 112.159 11.7702 104.801C11.7468 101.433 11.7949 98.0104 11.8411 94.6987C11.899 90.2809 11.9628 85.7122 11.8587 81.2161Z" fill="black"/>
<path d="M53.6626 64.3244C54.8071 63.7051 55.884 62.9696 56.8762 62.1293C57.1066 61.9474 57.3369 61.7649 57.5686 61.5861C60.9227 58.9958 64.2753 56.4055 67.6262 53.8152C71.5603 50.7716 75.4963 47.7306 79.4336 44.6922C79.6991 44.4994 79.9796 44.3282 80.2731 44.1806C80.1996 45.6653 80.1254 47.1299 80.0499 48.5745C79.8442 52.5772 79.6503 56.3586 79.5026 60.1942C78.965 74.1883 78.4288 88.9375 77.8619 105.288C77.8255 106.655 77.9224 108.024 78.1515 109.373C78.5902 112.12 80.2588 112.698 81.5832 112.698H81.5864C83.6924 112.698 85.0194 111.412 85.2309 109.175C85.2842 108.599 85.3408 108.024 85.3975 107.447C85.6311 105.075 85.8719 102.623 85.9038 100.194C86.0496 89.0301 86.1602 77.6788 86.2669 66.7023C86.3242 60.8265 86.3834 54.9515 86.4439 49.0766C86.4583 48.6304 86.5006 48.1851 86.5708 47.7442L86.6242 47.7928C87.1963 48.3173 87.6713 48.7523 88.1262 49.205C94.2834 55.3278 101.583 60.5277 110.442 65.1028L110.694 65.2323C111.426 65.6507 112.205 65.979 113.016 66.2108C113.529 66.3015 114.056 66.2697 114.556 66.1182C114.729 66.08 114.902 66.0418 115.071 66.0191C115.161 66.0068 115.248 65.9757 115.326 65.9291C115.404 65.8818 115.471 65.8197 115.524 65.7459C115.577 65.672 115.614 65.5885 115.634 65.4998C115.654 65.4117 115.654 65.3204 115.637 65.231C115.601 65.0283 115.575 64.8237 115.562 64.6185C115.572 64.0015 115.384 63.3972 115.027 62.8933C114.534 62.3708 113.986 61.9018 113.394 61.4944C112.972 61.1974 112.571 60.8729 112.193 60.523C109.164 57.5774 106.142 54.6249 103.127 51.665C99.249 47.8689 95.3657 44.0789 91.4778 40.2957C89.8294 38.595 88.0163 37.0606 86.0652 35.714C82.9967 33.7473 80.331 34.0555 77.4265 36.7138C74.7303 39.1824 71.8011 41.7742 68.4723 44.6385C66.0461 46.7258 63.6122 48.8024 61.1695 50.8682C58.5343 53.1062 55.9052 55.3514 53.2825 57.6033C52.2003 58.4855 51.2538 59.5209 50.4731 60.6761C49.9772 61.4648 49.9173 63.0719 50.5557 63.759C50.9758 64.1204 51.4855 64.3635 52.0317 64.4629C52.578 64.5623 53.1411 64.5145 53.6626 64.3244Z" fill="black"/>
</g>
<defs>
<clipPath id="clip0">
<rect width="164" height="147" fill="white" transform="translate(0.777344)"/>
</clipPath>
</defs>
</svg>

<svg xmlns="http://www.w3.org/2000/svg" width="165" height="147" fill="none" viewBox="0 0 165 147"><g fill="#000" clip-path="url(#a)"><path d="M163.823 89.403c-.568-13.534-1.144-25.365-1.763-36.157-.425-7.402-1.031-17.14-1.953-26.83-1.342-14.149-12.78-24.389-27.815-24.904-11.098-.38-22.387-.539-33.305-.693h-.102c-3.12-.043-6.292-.017-9.359.01C84.49.87 79.283.915 74.188.646 62.612.037 50.346.546 34.425 2.299c-10.361 1.14-18.157 4.17-24.54 9.539-5.26 4.425-7.823 9.556-7.837 15.688a168 168 0 0 1-.118 5.947c-.066 1.736-.186 3.508-.3 5.221a85 85 0 0 0-.264 11.057q.147 2.313.3 4.626c.79 12.03 1.607 24.47.777 36.743-.342 5.07-.249 10.242-.158 15.243l.02 1.086c.15 8.567 1.41 16.1 3.85 23.027 2.633 7.472 7.742 12.015 15.187 13.503a89.5 89.5 0 0 0 13.983 1.761c8.766.357 17.682.554 26.305.746q5.22.115 10.44.242h.014a.57.57 0 0 0 .325-.108h9.709l3.67.006c14.481.03 29.472.058 44.1-2.223 5.102-.795 11.06-1.907 16.579-4.114 11.078-4.43 17.056-12.599 17.767-24.279.455-7.508.112-15.063-.223-22.37zM11.859 81.216c-.182-7.821-.58-16.254-1.25-26.532-.53-8.105-.854-18.79 1.386-29.617a1.2 1.2 0 0 0 .065-.46c-.517-6.083 3.847-8.465 8.466-10.987l.161-.088c4.484-2.448 9.446-3.302 14.145-3.96a231 231 0 0 1 32.275-1.943c4.49 0 8.922.074 13.264.164 7.906.166 15.945.274 23.717.377 6.785.09 13.798.185 20.696.317 3.197.039 6.386.31 9.543.812 11.348 1.882 17.624 9.224 18.15 21.233.432 9.865.829 19.899 1.213 29.601q.433 10.906.882 21.813c.11 2.63.26 5.3.406 7.883.229 4.042.466 8.224.549 12.33.099 4.857-.173 9.843-.456 14.531-.417 6.825-4.409 11.674-11.863 14.41a70.3 70.3 0 0 1-14.081 3.346c-16.16 2.396-32.742 2.29-48.784 2.188l-2.107-.013q-1.268-.007-2.532 0h-1.147a.67.67 0 0 0-.535.27q-5.239-.133-10.478-.259c-10.282-.253-20.913-.513-31.364-.854a52.4 52.4 0 0 1-8.005-1.108l-.463-.088c-4.409-.842-7.359-3.55-8.767-8.056a73.6 73.6 0 0 1-3.175-21.725c-.023-3.368.025-6.79.071-10.102.058-4.418.122-8.987.018-13.483"/><path d="M53.663 64.324a19 19 0 0 0 3.213-2.195q.344-.274.693-.543l10.057-7.77q5.901-4.566 11.808-9.124a6 6 0 0 1 .84-.511q-.111 2.226-.224 4.394a882 882 0 0 0-.547 11.62 11944 11944 0 0 0-1.641 45.093c-.036 1.367.06 2.736.29 4.085.438 2.747 2.107 3.325 3.431 3.325h.003c2.106 0 3.433-1.286 3.645-3.523q.08-.863.166-1.728c.234-2.372.475-4.824.507-7.253.146-11.164.256-22.515.363-33.492q.086-8.812.177-17.625.022-.671.127-1.333l.053.049c.572.524 1.047.96 1.502 1.412 6.157 6.123 13.457 11.323 22.316 15.898l.252.13a10.5 10.5 0 0 0 2.322.978 3.3 3.3 0 0 0 1.54-.093 6 6 0 0 1 .515-.099.68.68 0 0 0 .453-.273.68.68 0 0 0 .113-.515 6 6 0 0 1-.075-.612 2.9 2.9 0 0 0-.535-1.726 10.2 10.2 0 0 0-1.633-1.399 12 12 0 0 1-1.201-.971 2676 2676 0 0 1-9.066-8.858 5470 5470 0 0 0-11.65-11.37 36 36 0 0 0-5.412-4.581c-3.068-1.967-5.734-1.658-8.638 1a387 387 0 0 1-8.955 7.925q-3.639 3.13-7.302 6.23a1919 1919 0 0 0-7.888 6.734 14.3 14.3 0 0 0-2.809 3.073c-.496.789-.556 2.396.083 3.083a3.12 3.12 0 0 0 3.107.565"/></g><defs><clipPath id="a"><path fill="#fff" d="M.777 0h164v147h-164z"/></clipPath></defs></svg>
